svg/flask.svg

<svg viewBox="0 0 20 20" xmlns="http://www.w3.org/2000/svg">
<rect width="100%" height="100%" fill="#38A8BE"/>
<path d="M5.86233 13.3839C7.34939 12.6368 10.4823 11.0642 10.538 11.0492C10.5614 11.0424 10.5827 11.0451 10.5827 11.0451C10.5916 11.0457 10.6001 11.0489 10.6071 11.0544C10.6141 11.0599 10.6193 11.0674 10.6219 11.0758C10.7965 11.4852 11.1252 12.1129 11.7253 12.7208C12.2751 13.2763 12.9408 13.7055 13.6758 13.9782C13.6792 13.9795 14.7524 14.4175 16.1982 14.2613C16.2134 14.2593 16.223 14.2558 16.2292 14.2476C16.2484 14.2231 16.2189 14.1822 16.2099 14.0887C16.2065 14.0573 16.2312 14.0368 16.2443 14.0205C16.2876 13.9652 16.7256 13.8171 16.861 13.7687C16.8802 13.7619 16.9297 13.7632 16.9621 13.7783C17.0136 13.8021 17.0776 13.8349 17.0803 13.8383C17.0858 13.8472 17.3388 13.7278 17.5347 13.6568C17.5605 13.647 17.5876 13.6415 17.6152 13.6404C17.656 13.6399 17.6965 13.6478 17.7341 13.6636C17.8558 13.7783 18.1507 14.2654 18.1521 14.2681C18.2037 14.3589 18.2786 14.4912 18.2387 14.6133C18.203 14.7211 18.0896 14.7832 18.0263 14.8173C18.0091 14.8269 17.4818 15.0459 17.4694 15.065C17.4516 15.0943 17.4419 15.1701 17.4323 15.2178C17.4245 15.2407 17.4093 15.2604 17.389 15.2738C17.294 15.3175 17.1977 15.3585 17.1002 15.3966C16.9366 15.4628 16.6726 15.5596 16.6382 15.5467C16.6004 15.5323 16.5777 15.4948 16.5681 15.4791C16.5406 15.4355 16.5186 15.3522 16.509 15.3379C16.5028 15.3283 16.4966 15.3229 16.4918 15.3249C16.2619 15.4351 16.0272 15.5353 15.7885 15.6251C14.9772 15.9321 13.7549 16.0918 13.7549 16.0918C12.9768 16.2336 12.1842 16.2803 11.3947 16.231C10.9925 16.2064 10.5927 16.1526 10.1984 16.07C9.8959 16.0051 9.40778 15.881 8.84403 15.6442C6.97127 14.8583 5.97714 13.5838 5.90564 13.5033L5.85408 13.4453C5.84651 13.4364 5.85133 13.4221 5.85133 13.4221C5.85133 13.4044 5.8582 13.3907 5.86233 13.3839ZM4.01294 10.8602C4.3532 11.5329 4.77003 12.1647 5.25526 12.7433C5.2587 12.748 5.28001 12.7501 5.28689 12.746L10.2328 10.253C10.2369 10.251 10.2403 10.2332 10.2376 10.2264C10.1225 9.91411 10.0195 9.59754 9.9289 9.2774C9.9289 9.2774 9.8024 8.82779 9.70753 8.37068L9.69378 8.30177C9.69034 8.28335 9.63534 8.27994 9.63259 8.2813C9.60853 8.29221 9.5879 8.3004 9.58653 8.30177C9.55421 8.32906 7.79352 9.12935 4.01569 10.8329C4.01088 10.8343 4.00882 10.8534 4.01294 10.8602ZM9.12453 3.28034C9.03859 3.2203 8.90796 3.26533 8.8729 3.28034L1.93256 6.23998C1.89221 6.25477 1.85573 6.2784 1.82586 6.30911C1.79598 6.33982 1.77347 6.37683 1.76 6.41737C1.74135 6.48428 1.74897 6.55572 1.78131 6.61727C2.11544 7.24768 2.277 7.50011 2.36569 7.68637C2.37463 7.70616 2.40006 7.76142 2.45713 7.78666C2.48669 7.80031 2.51419 7.79826 2.57881 7.7928C2.63038 7.78803 2.69363 7.78189 2.76581 7.77233C2.95661 8.55717 3.23374 9.31882 3.59219 10.0436C3.59563 10.0504 3.61626 10.0593 3.62313 10.0559L9.50747 7.43598C9.51159 7.43394 9.51778 7.41551 9.51709 7.40733C9.50692 7.33511 9.49454 7.26321 9.47997 7.19173C9.46278 7.11669 9.19603 5.74125 9.18571 3.87937C9.18503 3.77225 9.18503 3.59486 9.18915 3.37313C9.17813 3.33615 9.15549 3.30364 9.12453 3.28034Z" fill="white"/>
</svg>

<svg xmlns="http://www.w3.org/2000/svg" viewBox="0 0 20 20">
  <rect width="100%" height="100%" fill="#38A8BE"/>
  <path fill="#fff" d="M5.86 13.38c1.49-.74 4.62-2.32 4.68-2.33h.04a.04.04 0 0 1 .04.03 5.31 5.31 0 0 0 3.06 2.9s1.07.44 2.52.28l.03-.01c.02-.03-.01-.07-.02-.16 0-.03.02-.05.03-.07.05-.05.49-.2.62-.25h.1l.12.07.45-.18a.25.25 0 0 1 .2 0c.13.12.42.6.42.6.05.1.13.23.09.35-.04.11-.15.17-.21.2-.02.02-.55.24-.56.25-.02.03-.03.11-.04.16a.1.1 0 0 1-.04.05 5.36 5.36 0 0 1-.75.28c-.04-.02-.06-.06-.07-.07-.03-.04-.05-.13-.06-.14l-.02-.02c-.23.12-.46.22-.7.3-.81.31-2.04.47-2.04.47a9.77 9.77 0 0 1-3.55-.02c-.3-.06-.8-.19-1.36-.43-1.87-.78-2.86-2.06-2.93-2.14l-.06-.05v-.03l.01-.04Zm-1.85-2.52a9.85 9.85 0 0 0 1.28 1.89l4.94-2.5v-.02a12.9 12.9 0 0 1-.3-.95s-.13-.45-.22-.9l-.02-.08c0-.02-.05-.02-.06-.02l-.04.02A401.2 401.2 0 0 1 4 10.86Zm5.11-7.58c-.08-.06-.21-.01-.25 0L1.93 6.24a.29.29 0 0 0-.17.18.27.27 0 0 0 .02.2c.34.63.5.88.59 1.07 0 .02.03.07.09.1h.12c.05 0 .11 0 .19-.02a10.97 10.97 0 0 0 .85 2.29l5.89-2.62V7.4a18.79 18.79 0 0 1-.33-4.03.18.18 0 0 0-.06-.1Z"/>
</svg>
